; G-Code generated by Simplify3D(R) Version 4.1.2
; Apr 20, 2021 at 4:10:40 PM
; Settings Summary
;   processName,ip21
;   applyToModels,stepper_shim
;   profileName,MakerGearM2_0.50_PETG(modified) (modified)
;   profileVersion,2021-01-13 14:33:25
;   baseProfile,MakerGear M2 (24V V4 hotend) (modified)
;   printMaterial,PETG
;   printQuality,Fast
;   printExtruders,
;   extruderName,Primary Extruder
;   extruderToolheadNumber,0
;   extruderDiameter,0.5
;   extruderAutoWidth,0
;   extruderWidth,0.42
;   extrusionMultiplier,0.92
;   extruderUseRetract,1
;   extruderRetractionDistance,2
;   extruderExtraRestartDistance,0
;   extruderRetractionZLift,0
;   extruderRetractionSpeed,2400
;   extruderUseCoasting,1
;   extruderCoastingDistance,1
;   extruderUseWipe,1
;   extruderWipeDistance,5
;   primaryExtruder,0
;   layerHeight,0.2
;   topSolidLayers,6
;   bottomSolidLayers,6
;   perimeterOutlines,4
;   printPerimetersInsideOut,1
;   startPointOption,2
;   startPointOriginX,7
;   startPointOriginY,5
;   sequentialIslands,0
;   spiralVaseMode,0
;   firstLayerHeightPercentage,100
;   firstLayerWidthPercentage,100
;   firstLayerUnderspeed,0.4
;   useRaft,0
;   raftExtruder,0
;   raftTopLayers,3
;   raftBaseLayers,2
;   raftOffset,3
;   raftSeparationDistance,0.14
;   raftTopInfill,100
;   aboveRaftSpeedMultiplier,0.3
;   useSkirt,1
;   skirtExtruder,0
;   skirtLayers,1
;   skirtOutlines,2
;   skirtOffset,4
;   usePrimePillar,0
;   primePillarExtruder,999
;   primePillarWidth,12
;   primePillarLocation,7
;   primePillarSpeedMultiplier,1
;   useOozeShield,0
;   oozeShieldExtruder,999
;   oozeShieldOffset,2
;   oozeShieldOutlines,1
;   oozeShieldSidewallShape,1
;   oozeShieldSidewallAngle,30
;   oozeShieldSpeedMultiplier,1
;   infillExtruder,0
;   internalInfillPattern,Full Honeycomb
;   externalInfillPattern,Rectilinear
;   infillPercentage,40
;   outlineOverlapPercentage,30
;   infillExtrusionWidthPercentage,103
;   minInfillLength,2
;   infillLayerInterval,1
;   internalInfillAngles,0,120,-120
;   overlapInternalInfillAngles,0
;   externalInfillAngles,0,45,90
;   generateSupport,1
;   supportExtruder,0
;   supportInfillPercentage,30
;   supportExtraInflation,0
;   supportBaseLayers,0
;   denseSupportExtruder,0
;   denseSupportLayers,0
;   denseSupportInfillPercentage,70
;   supportLayerInterval,1
;   supportHorizontalPartOffset,0.8
;   supportUpperSeparationLayers,1
;   supportLowerSeparationLayers,0
;   supportType,0
;   supportGridSpacing,1
;   maxOverhangAngle,50
;   supportAngles,45
;   temperatureName,Primary Extruder,Heated Bed
;   temperatureNumber,0,2
;   temperatureSetpointCount,2,1
;   temperatureSetpointLayers,1,2,1
;   temperatureSetpointTemperatures,260,260,85
;   temperatureStabilizeAtStartup,1,1
;   temperatureHeatedBed,0,1
;   fanLayers,1,2
;   fanSpeeds,0,0
;   blipFanToFullPower,1
;   adjustSpeedForCooling,1
;   minSpeedLayerTime,5
;   minCoolingSpeedSlowdown,20
;   increaseFanForCooling,0
;   minFanLayerTime,45
;   maxCoolingFanSpeed,100
;   increaseFanForBridging,1
;   bridgingFanSpeed,100
;   use5D,1
;   relativeEdistances,0
;   allowEaxisZeroing,1
;   independentExtruderAxes,0
;   includeM10123,0
;   stickySupport,1
;   applyToolheadOffsets,0
;   gcodeXoffset,0
;   gcodeYoffset,0
;   gcodeZoffset,-0.71
;   overrideMachineDefinition,1
;   machineTypeOverride,0
;   strokeXoverride,200
;   strokeYoverride,250
;   strokeZoverride,200
;   originOffsetXoverride,0
;   originOffsetYoverride,0
;   originOffsetZoverride,0
;   homeXdirOverride,-1
;   homeYdirOverride,-1
;   homeZdirOverride,-1
;   flipXoverride,1
;   flipYoverride,-1
;   flipZoverride,1
;   toolheadOffsets,0,0|0,0|0,0|0,0|0,0|0,0
;   overrideFirmwareConfiguration,1
;   firmwareTypeOverride,RepRap (Marlin/Repetier/Sprinter)
;   GPXconfigOverride,r2
;   baudRateOverride,115200
;   overridePrinterModels,1
;   printerModelsOverride,MakerGear_M2Single.stl
;   startingGcode,M108 S255 ; turn on M2 fans,G28 ; home all axes,M201 X1000 Y1000;  Lower accelerations,G1 Y50 Z0.3 F9600 ; move forward to avoid binder clips,G1 X215 Z10 ; move off platform,G1 Z0.4 ; position nozzle,G92 E0 ; zero extruder,G1 E30 F150 ; purge nozzle,G92 E0 ; zero extruder,G1 X160 Z0.1 E3.0 F1200 ; slow wipe,G1 X130 Z0.25 ; lift
;   layerChangeGcode,
;   retractionGcode,
;   toolChangeGcode,
;   endingGcode,M104 S0 ; turn off extruder,M140 S0 ; turn off bed,G91 ; relative mode,G1 Z10 ; lift 10mm,G90 ; absolute mode,G28 X0 ; home X axis,G1 Z195 F2500; Drive bed to bottom,M84 ; disable motors,M106 S0 ; stop bed fan,M108 S0 ; stop extruder and electronics fans
;   exportFileFormat,gcode
;   celebration,0
;   celebrationSong,Random Song
;   postProcessing,
;   defaultSpeed,3200
;   outlineUnderspeed,0.5
;   solidInfillUnderspeed,0.75
;   supportUnderspeed,0.75
;   rapidXYspeed,12000
;   rapidZspeed,1200
;   minBridgingArea,10
;   bridgingExtraInflation,1
;   bridgingExtrusionMultiplier,1.4
;   bridgingSpeedMultiplier,1.25
;   useFixedBridgingAngle,0
;   fixedBridgingAngle,0
;   applyBridgingToPerimeters,0
;   filamentDiameters,1.75|1.75|1.75|1.75|1.75|1.75
;   filamentPricesPerKg,46|46|46|46|46|46
;   filamentDensities,1.25|1.25|1.25|1.25|1.25|1.25
;   useMinPrintHeight,0
;   minPrintHeight,0
;   useMaxPrintHeight,0
;   maxPrintHeight,5
;   useDiaphragm,1
;   diaphragmLayerInterval,20
;   robustSlicing,1
;   mergeAllIntoSolid,0
;   onlyRetractWhenCrossingOutline,1
;   retractBetweenLayers,1
;   useRetractionMinTravel,0
;   retractionMinTravel,3
;   retractWhileWiping,1
;   onlyWipeOutlines,1
;   avoidCrossingOutline,0
;   maxMovementDetourFactor,3
;   toolChangeRetractionDistance,12
;   toolChangeExtraRestartDistance,-0.5
;   toolChangeRetractionSpeed,600
;   externalThinWallType,0
;   internalThinWallType,2
;   thinWallAllowedOverlapPercentage,10
;   singleExtrusionMinLength,1
;   singleExtrusionMinPrintingWidthPercentage,50
;   singleExtrusionMaxPrintingWidthPercentage,200
;   singleExtrusionEndpointExtension,0.2
;   horizontalSizeCompensation,0
G90
M82
M106 S0
M140 S85
M190 S85
M104 S260 T0
M109 S260 T0
M108 S255 ; turn on M2 fans
G28 ; home all axes
M201 X1000 Y1000;  Lower accelerations
G1 Y50 Z0.3 F9600 ; move forward to avoid binder clips
G1 X215 Z10 ; move off platform
G1 Z0.4 ; position nozzle
G92 E0 ; zero extruder
G1 E30 F150 ; purge nozzle
G92 E0 ; zero extruder
G1 X160 Z0.1 E3.0 F1200 ; slow wipe
G1 X130 Z0.25 ; lift
; process ip21
; layer 1, Z = -0.510
T0
G92 E0.0000
G1 E-2.0000 F2400
; feature skirt
; tool H0.200 W0.420
G1 Z-0.510 F1200
G1 X80.973 Y101.504 F12000
G1 E0.0000 F2400
G92 E0.0000
G1 X81.956 Y100.877 E0.0375 F1280
G1 X82.410 Y100.654 E0.0537
G1 X83.253 Y100.347 E0.0826
G1 X83.644 Y100.242 E0.0955
G1 X84.477 Y100.095 E0.1227
G1 X84.879 Y100.060 E0.1357
G1 X114.846 Y100.050 E1.0985
G1 X115.150 Y100.070 E1.1083
G1 X116.208 Y100.209 E1.1426
G1 X116.699 Y100.329 E1.1588
G1 X117.543 Y100.636 E1.1877
G1 X117.909 Y100.807 E1.2007
G1 X118.643 Y101.231 E1.2279
G1 X118.974 Y101.463 E1.2409
G1 X119.547 Y101.944 E1.2649
G1 X119.700 Y102.084 E1.2716
G1 X123.183 Y105.582 E1.4302
G1 X123.496 Y105.973 E1.4463
G1 X124.123 Y106.956 E1.4837
G1 X124.346 Y107.410 E1.5000
G1 X124.653 Y108.253 E1.5288
G1 X124.758 Y108.644 E1.5418
G1 X124.905 Y109.477 E1.5690
G1 X124.940 Y109.879 E1.5820
G1 X124.950 Y139.846 E2.5448
G1 X124.930 Y140.150 E2.5546
G1 X124.791 Y141.208 E2.5889
G1 X124.671 Y141.699 E2.6051
G1 X124.364 Y142.543 E2.6340
G1 X124.193 Y142.909 E2.6469
G1 X123.769 Y143.643 E2.6742
G1 X123.537 Y143.974 E2.6872
G1 X123.056 Y144.547 E2.7112
G1 X122.916 Y144.700 E2.7178
G1 X119.418 Y148.183 E2.8765
G1 X119.027 Y148.496 E2.8925
G1 X118.044 Y149.123 E2.9300
G1 X117.590 Y149.346 E2.9463
G1 X116.747 Y149.653 E2.9751
G1 X116.356 Y149.758 E2.9881
G1 X115.523 Y149.905 E3.0153
G1 X115.121 Y149.940 E3.0283
G1 X85.204 Y149.950 E3.9894
G1 X85.001 Y149.941 E3.9960
G1 X84.258 Y149.876 E4.0199
G1 X83.860 Y149.806 E4.0329
G1 X83.042 Y149.587 E4.0601
G1 X82.662 Y149.448 E4.0731
G1 X81.894 Y149.091 E4.1003
G1 X81.544 Y148.888 E4.1133
G1 X80.850 Y148.403 E4.1406
G1 X80.540 Y148.143 E4.1535
G1 X76.822 Y144.424 E4.3225
G1 X76.505 Y144.029 E4.3388
G1 X75.877 Y143.044 E4.3763
G1 X75.654 Y142.590 E4.3926
G1 X75.347 Y141.747 E4.4214
G1 X75.242 Y141.356 E4.4344
G1 X75.095 Y140.523 E4.4616
G1 X75.060 Y140.121 E4.4746
G1 X75.050 Y110.154 E5.4374
G1 X75.070 Y109.850 E5.4471
G1 X75.209 Y108.792 E5.4814
G1 X75.329 Y108.301 E5.4977
G1 X75.636 Y107.457 E5.5265
G1 X75.807 Y107.091 E5.5395
G1 X76.231 Y106.357 E5.5667
G1 X76.463 Y106.026 E5.5797
G1 X76.944 Y105.453 E5.6038
G1 X77.084 Y105.300 E5.6104
G1 X80.582 Y101.817 E5.7690
G1 X80.973 Y101.504 E5.7851
G92 E0.0000
G1 E-2.0000 F2400
G1 X81.217 Y101.846 F12000
G1 E0.0000 F2400
G92 E0.0000
G1 X82.163 Y101.244 E0.0360 F1280
G1 X82.575 Y101.040 E0.0508
G1 X83.380 Y100.748 E0.0783
G1 X83.735 Y100.652 E0.0901
G1 X84.532 Y100.512 E0.1161
G1 X84.898 Y100.480 E0.1279
G1 X114.833 Y100.470 E1.0897
G1 X115.108 Y100.488 E1.0986
G1 X116.131 Y100.623 E1.1317
G1 X116.577 Y100.732 E1.1465
G1 X117.382 Y101.025 E1.1740
G1 X117.715 Y101.180 E1.1858
G1 X118.417 Y101.585 E1.2118
G1 X118.718 Y101.796 E1.2236
G1 X119.270 Y102.259 E1.2468
G1 X119.409 Y102.387 E1.2528
G1 X122.870 Y105.862 E1.4104
G1 X123.154 Y106.217 E1.4251
G1 X123.756 Y107.162 E1.4611
G1 X123.960 Y107.575 E1.4758
G1 X124.252 Y108.380 E1.5033
G1 X124.348 Y108.735 E1.5152
G1 X124.488 Y109.532 E1.5412
G1 X124.520 Y109.898 E1.5530
G1 X124.530 Y139.833 E2.5148
G1 X124.512 Y140.108 E2.5236
G1 X124.377 Y141.131 E2.5568
G1 X124.268 Y141.577 E2.5715
G1 X123.975 Y142.382 E2.5990
G1 X123.820 Y142.715 E2.6109
G1 X123.415 Y143.417 E2.6369
G1 X123.204 Y143.718 E2.6487
G1 X122.741 Y144.270 E2.6719
G1 X122.613 Y144.409 E2.6779
G1 X119.138 Y147.870 E2.8355
G1 X118.783 Y148.154 E2.8501
G1 X117.838 Y148.756 E2.8861
G1 X117.425 Y148.960 E2.9009
G1 X116.620 Y149.252 E2.9284
G1 X116.265 Y149.348 E2.9402
G1 X115.468 Y149.488 E2.9662
G1 X115.102 Y149.520 E2.9780
G1 X85.213 Y149.530 E3.9383
G1 X85.029 Y149.522 E3.9443
G1 X84.313 Y149.459 E3.9674
G1 X83.951 Y149.395 E3.9792
G1 X83.168 Y149.186 E4.0052
G1 X82.823 Y149.060 E4.0170
G1 X82.088 Y148.718 E4.0431
G1 X81.770 Y148.534 E4.0549
G1 X81.106 Y148.069 E4.0809
G1 X80.824 Y147.833 E4.0927
G1 X77.135 Y144.143 E4.2604
G1 X76.847 Y143.784 E4.2751
G1 X76.244 Y142.838 E4.3112
G1 X76.040 Y142.425 E4.3260
G1 X75.748 Y141.620 E4.3535
G1 X75.652 Y141.265 E4.3653
G1 X75.512 Y140.468 E4.3913
G1 X75.480 Y140.102 E4.4031
G1 X75.470 Y110.167 E5.3649
G1 X75.488 Y109.892 E5.3738
G1 X75.623 Y108.869 E5.4069
G1 X75.732 Y108.423 E5.4217
G1 X76.025 Y107.618 E5.4492
G1 X76.180 Y107.285 E5.4610
G1 X76.585 Y106.583 E5.4870
G1 X76.796 Y106.282 E5.4989
G1 X77.259 Y105.730 E5.5220
G1 X77.387 Y105.591 E5.5281
G1 X80.862 Y102.130 E5.6856
G1 X81.217 Y101.846 E5.7003
G92 E0.0000
G1 E-2.0000 F2400
; feature inner perimeter
G1 X85.848 Y106.150 F12000
G1 E0.0000 F2400
G92 E0.0000
G1 X114.149 Y106.150 E0.9093 F960
G1 X114.218 Y106.440 E0.9189
G1 X113.843 Y106.630 E0.9324
G1 X113.538 Y106.830 E0.9441
G1 X113.256 Y107.062 E0.9559
G1 X113.001 Y107.324 E0.9676
G1 X112.777 Y107.612 E0.9793
G1 X112.586 Y107.923 E0.9911
G1 X112.435 Y108.241 E1.0024
G1 X112.312 Y108.595 E1.0144
G1 X112.231 Y108.955 E1.0263
G1 X112.191 Y109.317 E1.0380
G1 X112.191 Y109.683 E1.0497
G1 X112.231 Y110.045 E1.0614
G1 X112.311 Y110.402 E1.0732
G1 X112.430 Y110.747 E1.0849
G1 X112.586 Y111.077 E1.0966
G1 X112.777 Y111.388 E1.1084
G1 X113.001 Y111.676 E1.1201
G1 X113.256 Y111.938 E1.1318
G1 X113.538 Y112.170 E1.1436
G1 X113.843 Y112.370 E1.1553
G1 X114.169 Y112.535 E1.1670
G1 X114.511 Y112.663 E1.1787
G1 X114.865 Y112.752 E1.1905
G1 X115.226 Y112.802 E1.2022
G1 X115.591 Y112.812 E1.2139
G1 X115.955 Y112.782 E1.2257
G1 X116.314 Y112.712 E1.2374
G1 X116.662 Y112.603 E1.2491
G1 X116.996 Y112.457 E1.2609
G1 X117.312 Y112.274 E1.2726
G1 X117.607 Y112.058 E1.2843
G1 X117.875 Y111.811 E1.2961
G1 X118.115 Y111.535 E1.3078
G1 X118.323 Y111.235 E1.3195
G1 X118.555 Y110.806 E1.3352
G1 X118.841 Y110.878 E1.3446
G1 X118.850 Y139.139 E2.2526
G1 X118.565 Y139.211 E2.2621
G1 X118.323 Y138.765 E2.2784
G1 X118.115 Y138.465 E2.2901
G1 X117.875 Y138.189 E2.3019
G1 X117.607 Y137.942 E2.3136
G1 X117.312 Y137.726 E2.3253
G1 X116.996 Y137.543 E2.3371
G1 X116.662 Y137.397 E2.3488
G1 X116.313 Y137.288 E2.3605
G1 X115.955 Y137.218 E2.3722
G1 X115.591 Y137.188 E2.3840
G1 X115.226 Y137.198 E2.3957
G1 X114.865 Y137.248 E2.4074
G1 X114.511 Y137.337 E2.4192
G1 X114.169 Y137.465 E2.4309
G1 X113.843 Y137.630 E2.4426
G1 X113.537 Y137.830 E2.4544
G1 X113.256 Y138.062 E2.4661
G1 X113.001 Y138.324 E2.4778
G1 X112.777 Y138.612 E2.4895
G1 X112.586 Y138.923 E2.5013
G1 X112.430 Y139.253 E2.5130
G1 X112.311 Y139.598 E2.5247
G1 X112.231 Y139.955 E2.5365
G1 X112.191 Y140.317 E2.5482
G1 X112.191 Y140.683 E2.5599
G1 X112.231 Y141.045 E2.5717
G1 X112.311 Y141.402 E2.5834
G1 X112.430 Y141.747 E2.5951
G1 X112.580 Y142.065 E2.6064
G1 X112.775 Y142.385 E2.6185
G1 X113.001 Y142.676 E2.6303
G1 X113.256 Y142.938 E2.6420
G1 X113.537 Y143.170 E2.6538
G1 X113.843 Y143.370 E2.6655
G1 X114.200 Y143.550 E2.6783
G1 X114.131 Y143.841 E2.6879
G1 X85.848 Y143.850 E3.5966
G1 X85.785 Y143.549 E3.6065
G1 X85.996 Y143.457 E3.6139
G1 X86.312 Y143.274 E3.6256
G1 X86.607 Y143.058 E3.6374
G1 X86.875 Y142.811 E3.6491
G1 X87.115 Y142.535 E3.6608
G1 X87.323 Y142.235 E3.6726
G1 X87.497 Y141.914 E3.6843
G1 X87.634 Y141.576 E3.6960
G1 X87.734 Y141.225 E3.7077
G1 X87.794 Y140.865 E3.7195
G1 X87.814 Y140.500 E3.7312
G1 X87.794 Y140.135 E3.7429
G1 X87.734 Y139.775 E3.7547
G1 X87.634 Y139.424 E3.7664
G1 X87.497 Y139.086 E3.7781
G1 X87.323 Y138.765 E3.7899
G1 X87.115 Y138.465 E3.8016
G1 X86.875 Y138.189 E3.8133
G1 X86.607 Y137.942 E3.8250
G1 X86.312 Y137.726 E3.8368
G1 X85.996 Y137.543 E3.8485
G1 X85.662 Y137.397 E3.8602
G1 X85.313 Y137.288 E3.8720
G1 X84.955 Y137.218 E3.8837
G1 X84.591 Y137.188 E3.8954
G1 X84.226 Y137.198 E3.9072
G1 X83.865 Y137.248 E3.9189
G1 X83.511 Y137.337 E3.9306
G1 X83.169 Y137.465 E3.9424
G1 X82.843 Y137.630 E3.9541
G1 X82.537 Y137.830 E3.9658
G1 X82.256 Y138.062 E3.9775
G1 X82.001 Y138.324 E3.9893
G1 X81.777 Y138.612 E4.0010
G1 X81.586 Y138.923 E4.0127
G1 X81.455 Y139.200 E4.0226
G1 X81.159 Y139.134 E4.0323
G1 X81.150 Y110.847 E4.9412
G1 X81.446 Y110.780 E4.9509
G1 X81.586 Y111.077 E4.9614
G1 X81.777 Y111.388 E4.9732
G1 X82.001 Y111.676 E4.9849
G1 X82.256 Y111.938 E4.9966
G1 X82.538 Y112.170 E5.0084
G1 X82.843 Y112.370 E5.0201
G1 X83.169 Y112.535 E5.0318
G1 X83.511 Y112.663 E5.0436
G1 X83.865 Y112.752 E5.0553
G1 X84.226 Y112.802 E5.0670
G1 X84.591 Y112.812 E5.0788
G1 X84.955 Y112.782 E5.0905
G1 X85.314 Y112.712 E5.1022
G1 X85.662 Y112.603 E5.1139
G1 X85.996 Y112.457 E5.1257
G1 X86.312 Y112.274 E5.1374
G1 X86.607 Y112.058 E5.1491
G1 X86.875 Y111.811 E5.1609
G1 X87.115 Y111.535 E5.1726
G1 X87.323 Y111.235 E5.1843
G1 X87.497 Y110.914 E5.1961
G1 X87.634 Y110.576 E5.2078
G1 X87.734 Y110.225 E5.2195
G1 X87.794 Y109.865 E5.2312
G1 X87.814 Y109.500 E5.2430
G1 X87.794 Y109.135 E5.2547
G1 X87.734 Y108.775 E5.2664
G1 X87.634 Y108.424 E5.2782
G1 X87.497 Y108.086 E5.2899
G1 X87.323 Y107.765 E5.3016
G1 X87.115 Y107.465 E5.3134
G1 X86.875 Y107.189 E5.3251
G1 X86.607 Y106.942 E5.3368
G1 X86.390 Y106.783 E5.3454
G1 X86.312 Y106.726 F960
G1 X85.996 Y106.543
G1 X85.785 Y106.450
G1 X85.848 Y106.150
G1 X85.327 Y105.730 F12000
G92 E0.0000
G1 X114.673 Y105.730 E0.9429 F960
G1 X114.803 Y105.736 E0.9470
G1 X115.080 Y105.785 E0.9561
G1 X115.324 Y105.873 E0.9644
G1 X115.548 Y106.003 E0.9727
G1 X115.781 Y106.198 E0.9825
G1 X116.244 Y106.663 E1.0036
G1 X115.580 Y106.608 E1.0250
G1 X115.261 Y106.617 E1.0353
G1 X114.945 Y106.661 E1.0455
G1 X114.636 Y106.739 E1.0557
G1 X114.338 Y106.851 E1.0660
G1 X114.054 Y106.994 E1.0762
G1 X113.787 Y107.169 E1.0865
G1 X113.540 Y107.372 E1.0967
G1 X113.318 Y107.600 E1.1069
G1 X113.123 Y107.851 E1.1172
G1 X112.956 Y108.123 E1.1274
G1 X112.825 Y108.400 E1.1373
G1 X112.717 Y108.710 E1.1478
G1 X112.646 Y109.024 E1.1581
G1 X112.611 Y109.341 E1.1684
G1 X112.611 Y109.659 E1.1786
